X: 100494
T: John Henry's
S: "Treoir" 
Z: B.Black
M: 4/4
L: 1/8
R: reel 
K: D
A2 Ad BFAF | DFAF EDB,D | A2 Ad BAFA | dBAF EDB,D :|
d2 ed fded | d2 fd BdAd | d2 ed fded | dBAF EDB,D |
d2 ed fded | d2 fd BdAd | dfec dBAB | dBAF EDB,D ||
